X: 35211
T: Rory Gallagher's
R: jig
M: 6/8
K: Amajor
cd|:eAA fAA|eAe fec|eaf ecA|cBB Bcd|
eAA fAA|eAe fec|eaf ecB|1 cAA Acd:|2 cAA A2B||
|:cAA cde|dAA ded|eAA eAe|dBB Bcd|
cAA cde|dAA ded|eee fed|cdB A3:|

